packages/katcn/src/icons/svg/arrow14.svg

<svg xmlns="http://www.w3.org/2000/svg" fill="none" viewBox="0 0 24 24"><path fill="#000" d="M12 2C6.5 2 2 6.5 2 12c0 .6.4 1 1 1h9.9l-3.2 3.2c-.4.4-.4 1 0 1.4.2.2.4.3.7.3s.5-.1.7-.3l4.8-4.9c.4-.4.4-1 0-1.4l-4.7-4.9c-.4-.4-1.1-.4-1.4 0-.4.4-.4 1 0 1.4l3.1 3.2H4.1c.5-3.9 3.8-7 7.9-7 4.4 0 8 3.6 8 8s-3.6 8-8 8c-3.3 0-6.2-2-7.5-5.1-.2-.5-.8-.8-1.3-.6s-.8.8-.6 1.3C4.2 19.5 7.9 22 12 22c5.5 0 10-4.5 10-10S17.5 2 12 2"/></svg>

<svg width="24" height="24" viewBox="0 0 24 24" fill="none" xmlns="http://www.w3.org/2000/svg">
<path d="M12 2C6.5 2 2 6.5 2 12C2 12.6 2.4 13 3 13H12.9L9.7 16.2C9.3 16.6 9.3 17.2 9.7 17.6C9.9 17.8 10.1 17.9 10.4 17.9C10.7 17.9 10.9 17.8 11.1 17.6L15.9 12.7C16.3 12.3 16.3 11.7 15.9 11.3L11.2 6.4C10.8 6 10.1 6 9.8 6.4C9.4 6.8 9.4 7.4 9.8 7.8L12.9 11H4.1C4.6 7.1 7.9 4 12 4C16.4 4 20 7.6 20 12C20 16.4 16.4 20 12 20C8.7 20 5.8 18 4.5 14.9C4.3 14.4 3.7 14.1 3.2 14.3C2.7 14.5 2.4 15.1 2.6 15.6C4.2 19.5 7.9 22 12 22C17.5 22 22 17.5 22 12C22 6.5 17.5 2 12 2Z" fill="black"/>
</svg>
